Origami/64x64/apps/plexhometheater.svg

<svg width="64" height="64" version="1" xmlns="http://www.w3.org/2000/svg">
 <path d="M 62,32 A 30,30 0 0 1 32,62 30,30 0 0 1 2,32 30,30 0 0 1 32,2 30,30 0 0 1 62,32 Z" style="fill:#4f4f4f"/>
 <path d="M 32 2 A 30.0005 30.0005 0 0 0 2 32 A 30.0005 30.0005 0 0 0 2.0175781 32.511719 A 30.0005 30.0005 0 0 1 32 3 A 30.0005 30.0005 0 0 1 61.976562 32.515625 A 30.0005 30.0005 0 0 0 62 32 A 30.0005 30.0005 0 0 0 32 2 z" style="fill:#ffffff;opacity:.1"/>
 <path d="M 61.960938 32.828125 A 30 30 0 0 1 32 62 A 30 30 0 0 1 2.0390625 33.171875 A 30 30 0 0 0 2 34 A 30 30 0 0 0 2.0234375 34.484375 A 30 30 0 0 1 2.0390625 34.171875 A 30 30 0 0 0 32 63 A 30 30 0 0 0 61.960938 33.828125 A 30 30 0 0 1 61.982422 34.488281 A 30 30 0 0 0 62 34 A 30 30 0 0 0 61.960938 32.828125 z" style="opacity:.2"/>
 <path d="m22 17h9l15 14.666-15 17.334h-9l15-17.334m-15-14.666" style="opacity:.2"/>
 <path d="m22 16h9l15 14.666-15 17.334h-9l15-17.334m-15-14.666" style="fill:#ff9b2a"/>
</svg>

<svg xmlns="http://www.w3.org/2000/svg" width="64" height="64" version="1">
 <path style="fill:#4f4f4f" d="M 62,32 A 30,30 0 0 1 32,62 30,30 0 0 1 2,32 30,30 0 0 1 32,2 30,30 0 0 1 62,32 Z"/>
 <path style="opacity:0.1;fill:#ffffff" d="M 32 2 A 30.0005 30.0005 0 0 0 2 32 A 30.0005 30.0005 0 0 0 2.0175781 32.511719 A 30.0005 30.0005 0 0 1 32 3 A 30.0005 30.0005 0 0 1 61.976562 32.515625 A 30.0005 30.0005 0 0 0 62 32 A 30.0005 30.0005 0 0 0 32 2 z"/>
 <path style="opacity:0.2" d="M 61.960938 32.828125 A 30 30 0 0 1 32 62 A 30 30 0 0 1 2.0390625 33.171875 A 30 30 0 0 0 2 34 A 30 30 0 0 0 2.0234375 34.484375 A 30 30 0 0 1 2.0390625 34.171875 A 30 30 0 0 0 32 63 A 30 30 0 0 0 61.960938 33.828125 A 30 30 0 0 1 61.982422 34.488281 A 30 30 0 0 0 62 34 A 30 30 0 0 0 61.960938 32.828125 z"/>
 <path style="opacity:0.2" d="M 22,17 31,17 46,31.666 31,49 22,49 37,31.666 M 22,17"/>
 <path style="fill:#ff9b2a" d="M 22,16 31,16 46,30.666 31,48 22,48 37,30.666 M 22,16"/>
</svg>
